X:1
T:Title
%%score { 1 | 2 }
L:1/8
M:3/4
K:Bb
V:1 treble nm="Grand Piano"
V:2 bass 
V:1
 z2 z[Q:1/4=94] [DF] [DF][Fd] | [Ec]3 [DB] [EG][EB] | [DF]3 [DF] [DF][FB] | [EA]4 [DB]2 | %4
 [Fc]3 [DF] [DF][Fd] | [Fc]3 [FB] GB | F3 F F[DFB] | [CFA]4 [Ec]2 |[M:3/8] [DB]3 | [DB][EA][FB] | %10
[M:3/4] [Fc]3 [Fc] [FB]c | d3 [Fd] [Fd][Fd] | [Fc]4 [=EG]2 | A3 A GA | [DB]3 [Fd] [DB]F | %15
 G3 [GB] [FA]G | F4 c2 |[M:3/8] [DB]3 |] %18
V:2
 z2 z [B,,B,] [B,,B,][B,,B,] | [B,,B,]3 [B,,B,] [B,,B,][B,,G,] | [B,,B,]3 [B,,B,] [B,,B,][D,B,] | %3
 [C,F,]4 [B,,B,]2 | [F,A,]3 [B,,B,] [B,,B,][B,,B,] | [C,A,]3 [D,B,] [E,B,E][G,B,E] | %6
 [B,D]3 [B,D] [B,D]B,, | F,4 [F,A,]2 |[M:3/8] [B,,B,]3 | [B,,F,][C,F,][D,B,] | %10
[M:3/4] [F,A,]3 [E,A,] [D,B,][K:treble][F,A,F] | [B,F]3[K:bass] [B,,B,] [B,,B,][B,,B,] | %12
 [C,A,]4 [C,C]2 | [F,CF]3 [F,CF] [F,CE][F,CE] | [B,,B,]3 [B,,B,] [B,,B,][D,B,] | %15
 [E,B,E]3 [E,B,] [E,B,][E,B,E] | [F,B,D]4 [F,A,E]2 |[M:3/8] [B,,B,]3 |] %18

